Sources/FrostedUI/Resources/Icons.xcassets/checklist20.imageset/checklist-20.svg

<svg width="20" height="20" viewBox="0 0 20 20" fill="none" xmlns="http://www.w3.org/2000/svg" data-fui-icon="true">
  <path
    d="M11 9C10.5858 9 10.25 9.33579 10.25 9.75 10.25 10.1642 10.5858 10.5 11 10.5H13.75C14.1642 10.5 14.5 10.1642 14.5 9.75 14.5 9.33579 14.1642 9 13.75 9H11zM10.25 14.25C10.25 13.8358 10.5858 13.5 11 13.5H13.75C14.1642 13.5 14.5 13.8358 14.5 14.25 14.5 14.6642 14.1642 15 13.75 15H11C10.5858 15 10.25 14.6642 10.25 14.25zM9.37404 9.16603C9.6038 8.82138 9.51067 8.35573 9.16603 8.12596 8.82138 7.8962 8.35573 7.98933 8.12596 8.33397L7.19491 9.73055 6.83565 9.28148C6.57689 8.95803 6.10493 8.90559 5.78148 9.16435 5.45803 9.42311 5.40559 9.89507 5.66435 10.2185L6.66435 11.4685C6.81382 11.6554 7.04347 11.7597 7.28252 11.7493 7.52156 11.7389 7.74131 11.6151 7.87404 11.416L9.37404 9.16603zM9.16603 12.626C9.51067 12.8557 9.6038 13.3214 9.37404 13.666L7.87404 15.916C7.74131 16.1151 7.52156 16.2389 7.28252 16.2493 7.04347 16.2597 6.81382 16.1554 6.66435 15.9685L5.66435 14.7185C5.40559 14.3951 5.45803 13.9231 5.78148 13.6643 6.10493 13.4056 6.57689 13.458 6.83565 13.7815L7.19491 14.2306 8.12596 12.834C8.35573 12.4893 8.82138 12.3962 9.16603 12.626z"
    fill="currentColor"
  />
  <path
    fill-rule="evenodd"
    clip-rule="evenodd"
    d="M9.3467 0.5C8.76561 0.5 8.24725 0.865297 8.0518 1.41254L7.842 2H6.87562C6.24691 2 5.71525 2.42238 5.55178 3H4.84375C3.56659 3 2.53125 4.03534 2.53125 5.3125V17.3438C2.53125 18.6209 3.56659 19.6562 4.84375 19.6562H15.1562C16.4334 19.6562 17.4688 18.6209 17.4688 17.3438V5.3125C17.4688 4.03534 16.4334 3 15.1562 3H14.4482C14.2847 2.42238 13.7531 2 13.1244 2H12.158L11.9482 1.41254C11.7528 0.865298 11.2344 0.5 10.6533 0.5H9.3467ZM9.13389 2.84251L9.43479 2H10.5652L10.8661 2.84251C10.9126 3.21721 11.2312 3.5 11.6104 3.5H13V4.75H7V3.5H8.38962C8.7688 3.5 9.08743 3.21721 9.13389 2.84251ZM15.9688 5.3125C15.9688 4.86377 15.605 4.5 15.1562 4.5H14.5V4.875C14.5 5.63439 13.8844 6.25 13.125 6.25H6.875C6.11561 6.25 5.5 5.63439 5.5 4.875V4.5H4.84375C4.39502 4.5 4.03125 4.86377 4.03125 5.3125V17.3438C4.03125 17.7925 4.39502 18.1562 4.84375 18.1562H15.1562C15.605 18.1562 15.9688 17.7925 15.9688 17.3438V5.3125Z"
    fill="currentColor"
  />
</svg>

<svg xmlns="http://www.w3.org/2000/svg" width="20" height="20" fill="none" data-fui-icon="true" viewBox="0 0 20 20"><path fill="currentColor" d="M11 9a.75.75 0 0 0 0 1.5h2.75a.75.75 0 0 0 0-1.5zm-.75 5.25a.75.75 0 0 1 .75-.75h2.75a.75.75 0 0 1 0 1.5H11a.75.75 0 0 1-.75-.75m-.876-5.084a.75.75 0 0 0-1.248-.832l-.931 1.397-.36-.45a.75.75 0 0 0-1.17.938l1 1.25a.75.75 0 0 0 1.209-.053zm-.208 3.46a.75.75 0 0 1 .208 1.04l-1.5 2.25a.75.75 0 0 1-1.21.053l-1-1.25a.75.75 0 1 1 1.172-.937l.359.449.931-1.397a.75.75 0 0 1 1.04-.208"/><path fill="currentColor" fill-rule="evenodd" d="M9.347.5c-.581 0-1.1.365-1.295.913L7.842 2h-.966c-.63 0-1.16.422-1.324 1h-.708A2.31 2.31 0 0 0 2.53 5.313v12.03a2.31 2.31 0 0 0 2.313 2.313h10.312a2.313 2.313 0 0 0 2.313-2.312V5.312A2.313 2.313 0 0 0 15.156 3h-.708c-.163-.578-.695-1-1.324-1h-.966l-.21-.587A1.375 1.375 0 0 0 10.653.5zm-.213 2.343.3-.843h1.131l.301.843a.75.75 0 0 0 .744.657H13v1.25H7V3.5h1.39a.75.75 0 0 0 .744-.657m6.835 2.47a.813.813 0 0 0-.813-.813H14.5v.375c0 .76-.616 1.375-1.375 1.375h-6.25c-.76 0-1.375-.616-1.375-1.375V4.5h-.656a.813.813 0 0 0-.813.813v12.03c0 .45.364.813.813.813h10.312a.81.81 0 0 0 .813-.812z" clip-rule="evenodd"/></svg>
